epam-assets/icon-sources/18/editor-quote.svg

<svg xmlns="http://www.w3.org/2000/svg" width="18" height="18" fill="none" viewBox="0 0 18 18">
  <path fill="#6C6F80" fill-rule="evenodd" d="M10.5 12.75h2.25l1.5-3v-4.5h-4.5v4.5H12m-7.5 3h2.25l1.5-3v-4.5h-4.5v4.5H6l-1.5 3Z" clip-rule="evenodd"/>
</svg>

<svg width="18" height="18" viewBox="0 0 18 18" fill="none" xmlns="http://www.w3.org/2000/svg">
<g id="18/editor-quote">
<path id="icon" fill-rule="evenodd" clip-rule="evenodd" d="M10.5 12.75H12.75L14.25 9.75V5.25H9.75V9.75H12M4.5 12.75H6.75L8.25 9.75V5.25H3.75V9.75H6L4.5 12.75Z" fill="#6C6F80"/>
</g>
</svg>
